X: 8958
T: Curupira
R: reel
M: 4/4
K: Gmajor
B|cAAA cAAA|dedc BAGB|cAAA cAAG|
EBAG AAAB|cAAA cAAA|dedc BABd|fedB AGEG|BAGA AAA:|
B|c3d edde|gedB AGAB|c3d edde|gedB AGAB|c3d edde|
gede aaab|aged edBA|1 GEGA AAA:|2 edBA GEG||"last time" AA6||

